X:1
T:Title
%%score ( 1 2 ) { 3 | 4 }
L:1/8
Q:1/4=105
M:4/4
K:Bb
V:1 treble nm="Grand Piano, Soprano"
V:2 treble 
V:3 treble nm="Choir Pad, He Arose"
V:4 bass 
V:1
 [DF][DF] [FB]2 [FB]2 [FB][EG] | [DF][EG] [DB]2 [EG]2 [DF]2 | Bc d2- [Gd-]2 [Fd]2 | %3
w: By~J.~M.~Copeland * * * * *|||
 [=EB][EB] c2- [Ec-][Ec-] [Fc]2 | [Fd][Ec] [DB]2 [Fd]2 [DB][Ec] | [DB][Fc] [GB]2 [EG]2 [DF]2 | %6
w: |||
 GB d2- [Gd-]2 [Fd]2 | [Ec][Ec] [DB]6 | FG B2- [EB]2 D2 | [EG][EG] F2- [DF-][EF] F2 | %10
w: ||||
 Bc d2- [^Fd-]2 [Gd]2 | [=Ec][Ed] c2- [Ec-]2 [Fc]2 | [Fd][Ec] [DB]2 [Fd]2 [Fd][Ec] | %13
w: |||
 [DB][Fc] [GB]2 [EG]2 [DF]2 | [Fd][DB] d2- [^Fd-]2 [Gd]2 | B[Fc] [FB]6- | [FB]2 z2 z4 |] %17
w: ||||
V:2
 x8 | x8 | z2 F2 z4 | z2 F2 z4 | x8 | x8 | z2 F2 z4 | x8 | z2 D2 z4 | z2 D2 z4 | z2 F2 z4 | %11
 z2 F2 z4 | x8 | x8 | z2 F2 z4 | x8 | x8 |] %17
V:3
 B,B, D2 D2 D[K:bass]B, | B,B, F,2 B,2 B,2 | z2 B,2 B,2 B,2 | B,B, A,2 B,B, A,2 | %4
 B,B, F,2 B,2 F,F, | F,B, B,2 B,2 B,2 | z2 B,2 B,2 B,2 | A,A, B,6 | z2 F,2 G,2 B,2 | %9
 B,B, B,2 B,A, B,2 | z2 B,2 C2 B,2 | G,B, A,2 B,2 A,2 | B,B, B,2 B,2 B,F, | F,B, B,2 B,2 B,2 | %14
 z2[K:treble] B,2 C2 B,2 | EF D6- | D2 z2 z4 |] %17
V:4
 B,,B,, B,,2 B,,2 B,,B,, | B,,B,, B,,2 B,,2 B,,2 | z4 G,2 D,2 | G,G, F,2 C,C, F,2 | %4
 B,,B,, B,,2 B,,2 B,,B,, | B,,D, E,2 E,2 B,,2 | z4 G,2 D,2 | F,F, B,,6 | z2 B,,2 B,,2 B,,2 | %9
 E,E, B,,2 B,,C, D,2 | z4 A,2 G,2 | C,C, F,2 G,2 F,2 | B,,B,, B,,2 B,,2 B,,B,, | %13
 B,,D, E,2 E,2 B,,2 | z4 A,2 G,2 | F,F, B,,6- | B,,2 z2 z4 |] %17

